X:1
T:Title
%%score { ( 1 2 ) | ( 3 4 ) }
L:1/8
M:4/4
K:G
V:1 treble nm="Grand Piano"
V:2 treble 
V:3 treble 
V:4 treble 
V:1
 z4 z2[Q:1/4=106] z A | B2 B2 d3 B | [DGB]2 [CFA]2 [B,G]2 [DG]2 | [EG]3 [DF] [FA][EG][DF][CE] | %4
[M:3/4] [B,D]6 |[M:1/4] GA |[M:4/4] B2 B2 B2 [=Fd]2 | [Ed]2 [Ec]2 [Ec]2 [Ge]2 | %8
 [DGd][EGc][DGB]A G2 F2 |[M:5/8] G- G3 z |[M:3/8] DG>A |[M:4/4] B6 z2 | A6 z2 | c6 z2 | B6 z2 | %15
 B6 z2 | c6 z2 | [DG]3 [GB] [GB]2 [FA]2 |[M:3/4] G6 |] %19
V:2
 z4 z2 G2 | x8 | x8 | x8 |[M:3/4] x6 |[M:1/4] x2 |[M:4/4] x8 | x8 | x8 |[M:5/8] x5 |[M:3/8] x3 | %11
[M:4/4] z D D>D Dc d>B | z D D>D DA A>B | z D D>D D^c d>A | z D D>D DD G>A | z D D>D Dd c>B | %16
 z G, G,>G, G,[Ec] [EB]>[EA] | x8 |[M:3/4] x6 |] %19
V:3
 z4 z2 B,C | [G,DG]2 [G,DG]2 [G,B,G]3 [G,DG] | D,2 D,2 G,2 B,,2 | %3
 [C,C]3 [C,C] [C,C][C,C][C,G,][C,G,] |[M:3/4] [G,,G,]6 |[M:1/4] [G,D]-[G,CD] | %6
[M:4/4] [G,D]2 [G,D]2 [G,D]2 [B,,G,]2 | [C,G,]2 [C,G,]2 [C,G,]2 [C,C]2 | %8
 B,,C,D,[D,CD] [D,B,D]2 [D,A,D]2 |[M:5/8] [G,B,D]- [G,B,D]3 z |[M:3/8] z[K:treble] B,>D | %11
[M:4/4] G6 z2 | F6[K:bass][K:treble] z2 | A6[K:bass][K:treble] z2 | G6[K:bass] z2 | G6 z2 | %16
 E6[K:bass] z2 | [D,B,]3 [D,D] [D,D]2 [D,C]2 |[M:3/4] [G,B,]6 |] %19
V:4
 z4 z2 G,2 | x8 | x8 | x8 |[M:3/4] x6 |[M:1/4] B, z |[M:4/4] x8 | x8 | x8 |[M:5/8] x5 | %10
[M:3/8] x[K:treble] x2 |[M:4/4] z G, G,>G, G,A B>G | z[K:bass] D, D,>D, D,[K:treble]F F>G | %13
 z[K:bass] D, D,>D, D,[K:treble]_B =B>F | z G,[K:bass] D,>B,, .G,,2 B,>D | z G, G,>G, G,=F E>D | %16
 z[K:bass] C, C,>C, C,[A,,A,] [B,,^G,]>[C,A,] | x8 |[M:3/4] x6 |] %19

